packages/foundations/assets/icons/functional/images/notification/cross_circle_28.svg

<svg width="28" height="28" viewBox="0 0 28 28" fill="none" xmlns="http://www.w3.org/2000/svg">
<g clip-path="url(#clip0_187_161)">
<path fill-rule="evenodd" clip-rule="evenodd" d="M14 1.75C20.7539 1.75 26.25 7.24614 26.25 14C26.25 20.7539 20.7539 26.25 14 26.25C7.2461 26.25 1.75 20.7539 1.75 14C1.75 7.24614 7.2461 1.75 14 1.75ZM14 3.5C8.20313 3.5 3.5 8.20312 3.5 14C3.5 19.7969 8.20313 24.5 14 24.5C19.7969 24.5 24.5 19.7969 24.5 14C24.5 8.20312 19.7969 3.5 14 3.5ZM8.75 9.625C8.75 9.13281 9.10547 8.75 9.625 8.75C9.8711 8.75 10.0625 8.80469 10.2539 8.99614L14 12.7422L17.7461 8.99614C17.9375 8.80469 18.1562 8.75 18.375 8.75C18.8672 8.75 19.25 9.10551 19.25 9.625C19.25 9.87114 19.1953 10.0625 19.0039 10.254L15.2578 14L19.0039 17.746C19.168 17.9101 19.25 18.1562 19.25 18.375C19.25 18.8672 18.8945 19.25 18.375 19.25C18.1289 19.25 17.9648 19.2226 17.7461 19.0039L14 15.2578L10.2539 19.0039C10.0625 19.1953 9.84375 19.25 9.625 19.25C9.13282 19.25 8.75 18.8945 8.75 18.375C8.75 18.1562 8.77735 17.9648 8.9961 17.746L12.7422 14L8.9961 10.254C8.80469 10.0625 8.75 9.84375 8.75 9.625Z" fill="#1A1C1F"/>
</g>
<defs>
<clipPath id="clip0_187_161">
<rect width="28" height="28" fill="white"/>
</clipPath>
</defs>
</svg>

<svg xmlns="http://www.w3.org/2000/svg" width="28" height="28" fill="none"><g clip-path="url(#a)"><path fill="#1A1C1F" fill-rule="evenodd" d="M14 1.75c6.754 0 12.25 5.496 12.25 12.25S20.754 26.25 14 26.25 1.75 20.754 1.75 14 7.246 1.75 14 1.75m0 1.75C8.203 3.5 3.5 8.203 3.5 14S8.203 24.5 14 24.5 24.5 19.797 24.5 14 19.797 3.5 14 3.5M8.75 9.625c0-.492.355-.875.875-.875.246 0 .438.055.629.246L14 12.742l3.746-3.746a.84.84 0 0 1 .629-.246c.492 0 .875.356.875.875 0 .246-.055.438-.246.629L15.258 14l3.746 3.746c.164.164.246.41.246.629 0 .492-.355.875-.875.875-.246 0-.41-.027-.629-.246L14 15.258l-3.746 3.746a.84.84 0 0 1-.629.246c-.492 0-.875-.355-.875-.875 0-.219.027-.41.246-.629L12.742 14l-3.746-3.746a.84.84 0 0 1-.246-.629" clip-rule="evenodd"/></g><defs><clipPath id="a"><path fill="#fff" d="M0 0h28v28H0z"/></clipPath></defs></svg>
